X:1
T:[ID 7-11]
T:[ID 7-11]
T:Bezeichnung standardisiert: Menuett Menuet 1mo
T:Urheber unbekannt Datum in der hier transkribierten schriftlichen Quelle: 1776 - 1791
C:Urheber unbekannt
C:Datum in der hier transkribierten schriftlichen Quelle: 1776 - 1791
%%score 1 2
L:1/8
M:3/4
K:G
V:1 treble nm="1mo"
V:2 treble nm="2.do"
V:1
 G2 (g/f/g/)a/ g2 | d2 e2 d2 | A2 g/f/g/a/ g2 | e2 d2 e2 | B2 g/f/g/a/ g2 | G2 b/a/b/c'/ b2 | %6
 bd'd'c'c'b | b2 a4 :: a4 c'2 | c'bbd' d'2 | f4 a2 | aggb b2 | d2 d2 d2 | (3dBd (3gdg bd | %14
 c2 c2 c2 | (3cAc (3fcf ac | G2 g/f/g/a/ g2 | A2 g/f/g/a/ g2 | (3ecA (3dBG (3cAF | G6 :| %20
V:2
 !fermata!G2 B/A/B/c/ B2 | B2 c2 B2 | A2 B/G/B/c/ B2 | c2 B2 c2 | G2 B/A/B/c/ B2 | G2 g/f/g/a/ g2 | %6
 gb ba ag | g2 f4 :: Tf4 a2 | ag gb b2 | d4 f2 | fe eg g2 | B2 B2 B2 | (3BGB (3BdB B2 | A2 A2 A2 | %15
 (3FAF (3AFA A2 | G2 G/F/G/A/ G2 | F2 G/E/G/A/ G2 | c2 B2 TA2 | G6 :| %20

